svg/sort_variant_remove.svg

<svg xmlns="http://www.w3.org/2000/svg" viewBox="0 0 24 24"><path d="M3 13h12v-2H3m0-5v2h18V6M3 18h6v-2H3zm19.54-1.12L20.41 19l2.13 2.12-1.42 1.42L19 20.41l-2.12 2.13-1.41-1.42L17.59 19l-2.12-2.12 1.41-1.41L19 17.59l2.12-2.13z"/></svg>

<?xml version="1.0" encoding="UTF-8"?><!DOCTYPE svg PUBLIC "-//W3C//DTD SVG 1.1//EN" "http://www.w3.org/Graphics/SVG/1.1/DTD/svg11.dtd"><svg xmlns="http://www.w3.org/2000/svg" xmlns:xlink="http://www.w3.org/1999/xlink" version="1.1" id="mdi-sort-variant-remove" width="24" height="24" viewBox="0 0 24 24"><path d="M3 13H15V11H3M3 6V8H21V6M3 18H9V16H3V18M22.54 16.88L20.41 19L22.54 21.12L21.12 22.54L19 20.41L16.88 22.54L15.47 21.12L17.59 19L15.47 16.88L16.88 15.47L19 17.59L21.12 15.46L22.54 16.88" /></svg>
